src/assets/images/Original-Graphics/3.svg

<svg xmlns="http://www.w3.org/2000/svg" xmlns:xlink="http://www.w3.org/1999/xlink" width="100" zoomAndPan="magnify" viewBox="0 0 75 74.999997" height="100" preserveAspectRatio="xMidYMid meet" version="1.0"><defs><clipPath id="418f938328"><path d="M 15.074219 9 L 60 9 L 60 65.976562 L 15.074219 65.976562 Z M 15.074219 9 " clip-rule="nonzero"/></clipPath></defs><g clip-path="url(#418f938328)"><path fill="#b13ed9" d="M 59.085938 50.363281 C 58.042969 49.320312 56.378906 49.257812 55.261719 50.175781 C 55.15625 50.015625 55.035156 49.867188 54.894531 49.726562 C 54.359375 49.191406 53.644531 48.894531 52.878906 48.894531 C 52.113281 48.894531 51.398438 49.191406 50.859375 49.726562 L 50.773438 49.816406 C 50.667969 49.660156 50.550781 49.511719 50.414062 49.378906 C 49.304688 48.265625 47.496094 48.265625 46.382812 49.378906 L 40.796875 54.960938 C 38.046875 54.355469 35.894531 53.730469 33.210938 52.753906 C 30.6875 51.839844 28.277344 51.570312 25.6875 51.921875 L 25.84375 51.347656 C 25.949219 50.949219 25.894531 50.53125 25.6875 50.171875 C 25.480469 49.808594 25.144531 49.554688 24.742188 49.445312 L 20.566406 48.328125 C 19.738281 48.105469 18.886719 48.597656 18.664062 49.425781 L 15.128906 62.628906 C 15.019531 63.03125 15.078125 63.449219 15.285156 63.808594 C 15.492188 64.167969 15.828125 64.425781 16.226562 64.535156 L 20.40625 65.652344 C 20.539062 65.6875 20.675781 65.707031 20.808594 65.707031 C 21.492188 65.707031 22.121094 65.246094 22.308594 64.554688 L 22.53125 63.722656 C 26.738281 65.058594 31.699219 65.980469 36.574219 65.980469 C 42.882812 65.980469 49.042969 64.4375 53.230469 60.253906 L 59.089844 54.394531 C 60.199219 53.285156 60.199219 51.476562 59.085938 50.363281 Z M 53.894531 50.730469 C 54.03125 50.867188 54.136719 51.03125 54.207031 51.210938 L 48.066406 57.351562 C 47.832031 56.703125 47.367188 56.160156 46.769531 55.828125 L 51.867188 50.730469 C 52.425781 50.171875 53.335938 50.171875 53.894531 50.730469 Z M 47.386719 50.382812 C 47.65625 50.113281 48.015625 49.964844 48.402344 49.964844 C 48.785156 49.964844 49.144531 50.113281 49.414062 50.382812 C 49.550781 50.519531 49.65625 50.683594 49.730469 50.859375 L 45.125 55.464844 C 44.207031 55.453125 43.34375 55.394531 42.496094 55.273438 Z M 20.773438 64.28125 L 16.59375 63.164062 C 16.550781 63.152344 16.527344 63.121094 16.511719 63.101562 C 16.5 63.078125 16.488281 63.039062 16.5 62.996094 L 20.035156 49.792969 C 20.050781 49.734375 20.109375 49.695312 20.167969 49.695312 C 20.179688 49.695312 20.191406 49.695312 20.203125 49.699219 L 24.378906 50.816406 C 24.421875 50.828125 24.449219 50.859375 24.460938 50.882812 C 24.472656 50.90625 24.488281 50.941406 24.476562 50.984375 L 20.9375 64.1875 C 20.917969 64.257812 20.84375 64.300781 20.773438 64.28125 Z M 58.085938 53.394531 L 52.226562 59.253906 C 49.054688 62.421875 44.226562 64.246094 38.253906 64.527344 C 33.429688 64.75 27.996094 63.980469 22.898438 62.351562 L 25.289062 53.421875 C 27.871094 52.972656 30.238281 53.1875 32.726562 54.089844 C 35.5625 55.117188 37.816406 55.769531 40.765625 56.410156 C 42.269531 56.734375 43.734375 56.882812 45.382812 56.882812 C 46.175781 56.882812 46.816406 57.527344 46.816406 58.316406 C 46.816406 59.105469 46.171875 59.75 45.382812 59.75 C 42.121094 59.75 36.578125 58.53125 33.804688 57.4375 C 33.441406 57.296875 33.027344 57.472656 32.886719 57.839844 C 32.742188 58.203125 32.921875 58.617188 33.285156 58.757812 C 36.175781 59.898438 41.964844 61.167969 45.382812 61.167969 C 46.582031 61.167969 47.609375 60.425781 48.03125 59.378906 C 48.058594 59.359375 48.085938 59.335938 48.109375 59.3125 L 56.054688 51.367188 C 56.617188 50.804688 57.523438 50.804688 58.082031 51.367188 C 58.644531 51.925781 58.644531 52.835938 58.085938 53.394531 Z M 22.03125 28.917969 L 25 29.371094 C 25.257812 30.21875 25.597656 31.042969 26.019531 31.824219 L 24.238281 34.242188 C 24.03125 34.527344 24.058594 34.917969 24.308594 35.164062 L 28.195312 39.050781 C 28.441406 39.300781 28.832031 39.328125 29.117188 39.121094 L 31.535156 37.339844 C 31.917969 37.542969 32.308594 37.730469 32.707031 37.894531 C 32.828125 38.480469 32.902344 39.089844 32.933594 39.71875 C 31.882812 40.035156 31.113281 41.015625 31.113281 42.167969 C 31.113281 42.898438 31.417969 43.554688 31.90625 44.023438 C 31.417969 44.488281 31.113281 45.148438 31.113281 45.875 C 31.113281 47.265625 32.222656 48.398438 33.601562 48.4375 L 33.601562 49.582031 C 33.601562 50.996094 34.753906 52.144531 36.164062 52.144531 L 39.617188 52.144531 C 41.03125 52.144531 42.179688 50.996094 42.179688 49.582031 L 42.179688 48.4375 C 43.5625 48.398438 44.671875 47.265625 44.671875 45.875 C 44.671875 45.148438 44.367188 44.488281 43.875 44.023438 C 44.367188 43.554688 44.671875 42.898438 44.671875 42.167969 C 44.671875 41.015625 43.902344 40.035156 42.851562 39.71875 C 42.882812 39.089844 42.957031 38.480469 43.078125 37.894531 C 43.476562 37.730469 43.867188 37.542969 44.246094 37.339844 L 46.667969 39.121094 C 46.792969 39.214844 46.941406 39.261719 47.089844 39.261719 C 47.269531 39.261719 47.453125 39.1875 47.589844 39.050781 L 51.476562 35.164062 C 51.722656 34.917969 51.753906 34.527344 51.546875 34.242188 L 49.765625 31.824219 C 50.183594 31.039062 50.527344 30.21875 50.78125 29.371094 L 53.75 28.917969 C 54.097656 28.863281 54.355469 28.566406 54.355469 28.21875 L 54.355469 22.71875 C 54.355469 22.371094 54.097656 22.074219 53.75 22.019531 L 50.78125 21.566406 C 50.527344 20.71875 50.183594 19.898438 49.765625 19.113281 L 51.546875 16.695312 C 51.753906 16.410156 51.722656 16.019531 51.476562 15.773438 L 47.589844 11.886719 C 47.34375 11.636719 46.949219 11.609375 46.667969 11.816406 L 44.246094 13.597656 C 43.464844 13.175781 42.640625 12.835938 41.792969 12.578125 L 41.34375 9.609375 C 41.289062 9.265625 40.992188 9.007812 40.640625 9.007812 L 35.144531 9.007812 C 34.792969 9.007812 34.496094 9.261719 34.445312 9.609375 L 33.992188 12.578125 C 33.140625 12.835938 32.320312 13.175781 31.539062 13.597656 L 29.117188 11.816406 C 28.835938 11.609375 28.445312 11.636719 28.195312 11.886719 L 24.308594 15.773438 C 24.0625 16.019531 24.03125 16.410156 24.238281 16.695312 L 26.019531 19.113281 C 25.601562 19.898438 25.261719 20.71875 25.003906 21.566406 L 22.035156 22.019531 C 21.6875 22.074219 21.429688 22.371094 21.429688 22.71875 L 21.429688 28.21875 C 21.429688 28.566406 21.683594 28.863281 22.03125 28.917969 Z M 41.433594 39.605469 L 41.144531 39.605469 L 41.144531 34.335938 L 44.375 31.101562 C 44.507812 30.96875 44.582031 30.789062 44.582031 30.601562 L 44.582031 28.667969 C 45.726562 28.355469 46.570312 27.308594 46.570312 26.070312 C 46.570312 24.582031 45.359375 23.375 43.875 23.375 C 42.386719 23.375 41.179688 24.582031 41.179688 26.070312 C 41.179688 27.308594 42.023438 28.355469 43.164062 28.667969 L 43.164062 30.308594 L 39.933594 33.539062 C 39.800781 33.671875 39.726562 33.851562 39.726562 34.042969 L 39.726562 39.609375 L 38.601562 39.609375 L 38.601562 28.667969 C 39.742188 28.355469 40.585938 27.308594 40.585938 26.070312 C 40.585938 24.582031 39.378906 23.375 37.890625 23.375 C 36.40625 23.375 35.195312 24.582031 35.195312 26.070312 C 35.195312 27.308594 36.039062 28.355469 37.183594 28.667969 L 37.183594 39.609375 L 36.058594 39.609375 L 36.058594 34.042969 C 36.058594 33.851562 35.984375 33.671875 35.851562 33.539062 L 32.617188 30.308594 L 32.617188 28.667969 C 33.761719 28.355469 34.605469 27.308594 34.605469 26.070312 C 34.605469 24.582031 33.394531 23.375 31.910156 23.375 C 30.421875 23.375 29.214844 24.582031 29.214844 26.070312 C 29.214844 27.308594 30.058594 28.355469 31.199219 28.667969 L 31.199219 30.601562 C 31.199219 30.789062 31.273438 30.96875 31.40625 31.101562 L 34.640625 34.335938 L 34.640625 39.605469 L 34.347656 39.605469 C 34.195312 36.59375 33.058594 33.941406 30.957031 31.714844 C 29.285156 29.941406 28.363281 27.621094 28.363281 25.179688 C 28.363281 19.925781 32.636719 15.652344 37.890625 15.652344 C 43.144531 15.652344 47.417969 19.925781 47.417969 25.179688 C 47.417969 27.621094 46.5 29.941406 44.824219 31.714844 C 42.726562 33.941406 41.589844 36.59375 41.433594 39.605469 Z M 43.871094 27.34375 C 43.167969 27.34375 42.597656 26.773438 42.597656 26.066406 C 42.597656 25.363281 43.167969 24.792969 43.871094 24.792969 C 44.578125 24.792969 45.148438 25.363281 45.148438 26.066406 C 45.148438 26.773438 44.578125 27.34375 43.871094 27.34375 Z M 37.890625 27.34375 C 37.1875 27.34375 36.613281 26.773438 36.613281 26.066406 C 36.613281 25.363281 37.1875 24.792969 37.890625 24.792969 C 38.59375 24.792969 39.167969 25.363281 39.167969 26.066406 C 39.167969 26.773438 38.59375 27.34375 37.890625 27.34375 Z M 31.90625 27.34375 C 31.203125 27.34375 30.632812 26.773438 30.632812 26.066406 C 30.632812 25.363281 31.203125 24.792969 31.90625 24.792969 C 32.613281 24.792969 33.183594 25.363281 33.183594 26.066406 C 33.183594 26.773438 32.613281 27.34375 31.90625 27.34375 Z M 39.617188 50.726562 L 36.164062 50.726562 C 35.535156 50.726562 35.019531 50.210938 35.019531 49.582031 L 35.019531 48.4375 L 40.761719 48.4375 L 40.761719 49.582031 C 40.761719 50.210938 40.246094 50.726562 39.617188 50.726562 Z M 42.105469 47.019531 L 33.675781 47.019531 C 33.042969 47.019531 32.53125 46.507812 32.53125 45.875 C 32.53125 45.242188 33.042969 44.730469 33.675781 44.730469 C 33.703125 44.730469 33.726562 44.730469 33.75 44.726562 C 33.777344 44.726562 33.800781 44.730469 33.828125 44.730469 L 41.953125 44.730469 C 41.980469 44.730469 42.003906 44.730469 42.03125 44.726562 C 42.054688 44.730469 42.078125 44.730469 42.105469 44.730469 C 42.738281 44.730469 43.25 45.242188 43.25 45.875 C 43.25 46.507812 42.738281 47.019531 42.105469 47.019531 Z M 43.25 42.167969 C 43.25 42.800781 42.738281 43.3125 42.105469 43.3125 C 42.078125 43.3125 42.054688 43.3125 42.03125 43.316406 C 42.003906 43.3125 41.980469 43.3125 41.953125 43.3125 L 33.828125 43.3125 C 33.800781 43.3125 33.777344 43.3125 33.75 43.316406 C 33.726562 43.3125 33.703125 43.3125 33.675781 43.3125 C 33.042969 43.3125 32.53125 42.800781 32.53125 42.167969 C 32.53125 41.539062 33.042969 41.023438 33.675781 41.023438 L 42.105469 41.023438 C 42.738281 41.023438 43.25 41.539062 43.25 42.167969 Z M 22.847656 23.328125 L 25.664062 22.898438 C 25.945312 22.859375 26.171875 22.652344 26.246094 22.378906 C 26.519531 21.34375 26.929688 20.347656 27.472656 19.417969 C 27.613281 19.175781 27.597656 18.871094 27.429688 18.640625 L 25.742188 16.34375 L 28.765625 13.320312 L 31.0625 15.011719 C 31.289062 15.175781 31.597656 15.191406 31.839844 15.050781 C 32.765625 14.511719 33.765625 14.097656 34.800781 13.824219 C 35.074219 13.75 35.277344 13.523438 35.320312 13.242188 L 35.753906 10.425781 L 40.03125 10.425781 L 40.460938 13.242188 C 40.5 13.523438 40.707031 13.75 40.980469 13.824219 C 42.015625 14.097656 43.011719 14.511719 43.941406 15.050781 C 44.183594 15.191406 44.488281 15.175781 44.71875 15.011719 L 47.015625 13.320312 L 50.039062 16.34375 L 48.351562 18.640625 C 48.183594 18.871094 48.167969 19.175781 48.308594 19.417969 C 48.847656 20.34375 49.261719 21.34375 49.535156 22.378906 C 49.609375 22.652344 49.835938 22.855469 50.117188 22.898438 L 52.933594 23.328125 L 52.933594 27.605469 L 50.117188 28.035156 C 49.835938 28.078125 49.609375 28.28125 49.535156 28.554688 C 49.261719 29.59375 48.847656 30.589844 48.308594 31.515625 C 48.167969 31.761719 48.183594 32.066406 48.351562 32.292969 L 50.039062 34.589844 L 47.015625 37.617188 L 44.71875 35.925781 C 44.492188 35.757812 44.183594 35.742188 43.941406 35.886719 C 43.84375 35.941406 43.742188 35.996094 43.640625 36.054688 C 44.140625 34.84375 44.878906 33.726562 45.859375 32.6875 C 47.78125 30.648438 48.835938 27.980469 48.835938 25.179688 C 48.835938 19.144531 43.925781 14.234375 37.890625 14.234375 C 31.855469 14.234375 26.945312 19.144531 26.945312 25.179688 C 26.945312 27.980469 28.003906 30.648438 29.925781 32.6875 C 30.90625 33.726562 31.640625 34.84375 32.140625 36.054688 C 32.042969 36 31.941406 35.941406 31.84375 35.886719 C 31.597656 35.742188 31.292969 35.761719 31.066406 35.925781 L 28.769531 37.617188 L 25.742188 34.589844 L 27.433594 32.292969 C 27.601562 32.066406 27.617188 31.757812 27.472656 31.515625 C 26.933594 30.589844 26.519531 29.59375 26.246094 28.554688 C 26.175781 28.28125 25.945312 28.078125 25.667969 28.035156 L 22.847656 27.605469 Z M 22.847656 23.328125 " fill-opacity="1" fill-rule="nonzero"/></g></svg>

<svg xmlns="http://www.w3.org/2000/svg" width="100" height="100" viewBox="0 0 75 75"><defs><clipPath id="a"><path d="M15.07 9H60v56.98H15.07Zm0 0"/></clipPath></defs><g clip-path="url(#a)"><path fill="currentColor" d="M59.09 50.36a2.86 2.86 0 0 0-3.83-.18 2.8 2.8 0 0 0-2.38-1.29c-.77 0-1.48.3-2.02.84l-.09.09q-.15-.23-.36-.44a2.85 2.85 0 0 0-4.03 0l-5.58 5.58c-2.75-.6-4.9-1.23-7.59-2.2a15 15 0 0 0-7.52-.84l.15-.57a1.55 1.55 0 0 0-1.1-1.9l-4.17-1.12a1.55 1.55 0 0 0-1.9 1.1l-3.54 13.2a1.56 1.56 0 0 0 1.1 1.9l4.18 1.12q.2.06.4.06c.68 0 1.31-.46 1.5-1.16l.22-.83a48 48 0 0 0 14.04 2.26c6.31 0 12.47-1.54 16.66-5.73l5.86-5.86a2.85 2.85 0 0 0 0-4.03m-5.2.37q.21.21.32.48l-6.14 6.14a3 3 0 0 0-1.3-1.52l5.1-5.1a1.44 1.44 0 0 1 2.02 0m-6.5-.35q.42-.41 1.01-.42a1.4 1.4 0 0 1 1.33.9l-4.6 4.6a20 20 0 0 1-2.63-.19Zm-26.62 13.9-4.18-1.12q-.05-.02-.08-.06t-.01-.1l3.54-13.2q.03-.1.13-.1h.03l4.18 1.12q.06.02.08.06t.02.1l-3.54 13.2a.13.13 0 0 1-.17.1M58.1 53.4l-5.86 5.86c-3.18 3.17-8 5-13.98 5.28a45 45 0 0 1-15.35-2.18l2.39-8.93a14 14 0 0 1 7.44.67 58 58 0 0 0 8.04 2.32c1.5.32 2.96.47 4.61.47a1.43 1.43 0 0 1 0 2.87c-3.26 0-8.8-1.22-11.58-2.31a.7.7 0 0 0-.91.4.7.7 0 0 0 .4.92c2.89 1.14 8.67 2.4 12.1 2.4 1.2 0 2.22-.73 2.64-1.78l.08-.07 7.94-7.94a1.43 1.43 0 0 1 2.03 2.03M22.03 28.92l2.97.45q.39 1.28 1.02 2.45l-1.78 2.42a.7.7 0 0 0 .07.92l3.89 3.9a.7.7 0 0 0 .92.06l2.42-1.78q.57.3 1.17.55.19.89.22 1.83a2.56 2.56 0 0 0-1.02 4.3 2.55 2.55 0 0 0 1.7 4.42v1.14a2.57 2.57 0 0 0 2.55 2.56h3.46a2.56 2.56 0 0 0 2.56-2.56v-1.14a2.57 2.57 0 0 0 1.7-4.42 2.55 2.55 0 0 0-1.03-4.3q.04-.95.23-1.83.6-.25 1.17-.55l2.42 1.78a.7.7 0 0 0 .92-.07l3.89-3.89a.7.7 0 0 0 .07-.92l-1.78-2.42q.63-1.17 1.01-2.45l2.97-.45a.7.7 0 0 0 .6-.7v-5.5a.7.7 0 0 0-.6-.7l-2.97-.45q-.39-1.28-1.01-2.46l1.78-2.41a.7.7 0 0 0-.07-.93l-3.89-3.88a.7.7 0 0 0-.92-.07l-2.42 1.78q-1.18-.63-2.46-1.02l-.45-2.97a.7.7 0 0 0-.7-.6h-5.5a.7.7 0 0 0-.7.6L34 12.58q-1.28.39-2.45 1.02l-2.42-1.78a.7.7 0 0 0-.92.07l-3.9 3.88a.7.7 0 0 0-.06.93l1.78 2.41q-.63 1.18-1.02 2.46l-2.96.45a.7.7 0 0 0-.61.7v5.5c0 .35.25.64.6.7m19.4 10.69h-.29v-5.27l3.23-3.24a.7.7 0 0 0 .21-.5v-1.93a2.7 2.7 0 1 0-1.42 0v1.64l-3.23 3.23a.7.7 0 0 0-.2.5v5.57H38.6V28.67a2.7 2.7 0 0 0-.7-5.3 2.7 2.7 0 0 0-.72 5.3V39.6h-1.12v-5.57a.7.7 0 0 0-.2-.5l-3.24-3.23v-1.64a2.7 2.7 0 1 0-1.42 0v1.93q0 .3.2.5l3.24 3.24v5.27h-.3a12 12 0 0 0-3.38-7.9 9.54 9.54 0 1 1 13.87 0 12 12 0 0 0-3.4 7.9m2.44-12.27a1.27 1.27 0 1 1 0-2.55 1.27 1.27 0 0 1 0 2.55m-5.98 0a1.28 1.28 0 1 1 0-2.55 1.28 1.28 0 0 1 0 2.55m-5.98 0a1.27 1.27 0 1 1 0-2.55 1.27 1.27 0 0 1 0 2.55m7.7 23.39h-3.45c-.62 0-1.14-.52-1.14-1.15v-1.14h5.74v1.14c0 .63-.51 1.15-1.14 1.15m2.5-3.71h-8.43a1.14 1.14 0 1 1 0-2.29h8.43a1.14 1.14 0 1 1 0 2.29m1.14-4.85c0 .63-.51 1.14-1.14 1.14h-8.43a1.14 1.14 0 1 1 0-2.29h8.43c.63 0 1.14.52 1.14 1.15m-20.4-18.84 2.81-.43a.7.7 0 0 0 .59-.52q.4-1.56 1.22-2.96a.7.7 0 0 0-.04-.78l-1.69-2.3 3.03-3.02 2.3 1.7c.22.16.53.17.77.03q1.4-.81 2.96-1.23a.7.7 0 0 0 .52-.58l.43-2.81h4.28l.43 2.81a.7.7 0 0 0 .52.58q1.56.43 2.96 1.23c.24.14.55.13.78-.04l2.3-1.69 3.02 3.02-1.69 2.3a.7.7 0 0 0-.04.78q.81 1.39 1.23 2.96c.07.27.3.48.58.52l2.81.43v4.28l-2.81.43a.7.7 0 0 0-.58.51 12 12 0 0 1-1.23 2.97.7.7 0 0 0 .04.77l1.69 2.3-3.02 3.03-2.3-1.7a.7.7 0 0 0-.78-.03l-.3.16q.75-1.8 2.22-3.36a10.96 10.96 0 0 0-7.97-18.45 10.96 10.96 0 0 0-7.96 18.45 11 11 0 0 1 2.21 3.36l-.3-.16a.7.7 0 0 0-.77.04l-2.3 1.69-3.03-3.03 1.7-2.3a.7.7 0 0 0 .03-.77q-.81-1.4-1.22-2.97a.7.7 0 0 0-.58-.51l-2.82-.43Zm0 0"/></g></svg>
